build/svg/cmd/lc_insertendnote.svg

<?xml version="1.0" encoding="UTF-8" standalone="no"?>
<svg
   xmlns:dc="http://purl.org/dc/elements/1.1/"
   xmlns:cc="http://creativecommons.org/ns#"
   xmlns:rdf="http://www.w3.org/1999/02/22-rdf-syntax-ns#"
   xmlns:svg="http://www.w3.org/2000/svg"
   xmlns="http://www.w3.org/2000/svg"
   xmlns:sodipodi="http://sodipodi.sourceforge.net/DTD/sodipodi-0.dtd"
   xmlns:inkscape="http://www.inkscape.org/namespaces/inkscape"
   viewBox="0 0 24 24"
   version="1.1"
   id="svg6"
   sodipodi:docname="lc_insertendnote.svg"
   inkscape:export-filename="/home/jupiter007/Libreoffice yaru theme fullcolor/build/cmd/lc_insertendnote.png"
   inkscape:export-xdpi="95"
   inkscape:export-ydpi="95"
   inkscape:version="0.92.4 (5da689c313, 2019-01-14)">
  <metadata
     id="metadata12">
    <rdf:RDF>
      <cc:Work
         rdf:about="">
        <dc:format>image/svg+xml</dc:format>
        <dc:type
           rdf:resource="http://purl.org/dc/dcmitype/StillImage" />
      </cc:Work>
    </rdf:RDF>
  </metadata>
  <defs
     id="defs10" />
  <sodipodi:namedview
     pagecolor="#ffffff"
     bordercolor="#666666"
     borderopacity="1"
     objecttolerance="10"
     gridtolerance="10"
     guidetolerance="10"
     inkscape:pageopacity="0"
     inkscape:pageshadow="2"
     inkscape:window-width="1920"
     inkscape:window-height="1011"
     id="namedview8"
     showgrid="true"
     inkscape:zoom="19.666667"
     inkscape:cx="9.9706765"
     inkscape:cy="-1.6188083"
     inkscape:window-x="1920"
     inkscape:window-y="32"
     inkscape:window-maximized="1"
     inkscape:current-layer="svg6">
    <inkscape:grid
       type="xygrid"
       id="grid844" />
  </sodipodi:namedview>
  <path
     style="font-style:normal;font-variant:normal;font-weight:normal;font-stretch:normal;font-size:15px;line-height:125%;font-family:Ubuntu;-inkscape-font-specification:Ubuntu;text-align:center;letter-spacing:0px;word-spacing:0px;writing-mode:lr-tb;text-anchor:middle;display:inline;opacity:0.6;fill:#000000;fill-opacity:1;stroke:none;stroke-width:0.99980211"
     d="m 10,5.9999998 c -1.2582,0.0145 -2.178891,-0.030604 -2.931641,0.3847656 -0.37637,0.20766 -0.6732309,0.5593869 -0.8378909,0.9980469 -0.16467,0.43867 -0.224609,0.9595875 -0.224609,1.6171875 v 1.4882812 8.512302 c 0,0.65761 0.0599,1.178577 0.224609,1.617188 0.16468,0.438611 0.4615309,0.788524 0.8378909,0.996093 C 7.821079,22.028994 8.7419,21.985513 10,22.000583 h 0.002 8.006203 0.0039 c 1.25819,-0.0145 2.178891,0.0306 2.931641,-0.384766 0.37637,-0.20766 0.673221,-0.559386 0.837891,-0.998046 0.164539,-0.438671 0.224618,-0.959578 0.224618,-1.617188 V 10.466797 8.9999998 c 0,-0.6576 -0.0599,-1.1785775 -0.224609,-1.6171875 -0.16468,-0.4386 -0.461531,-0.7885338 -0.837891,-0.9960937 -0.75277,-0.41513 -1.673601,-0.3716388 -2.931691,-0.3867188 h -0.002 -8.006203 z"
     id="path851"
     inkscape:connector-curvature="0"
     sodipodi:nodetypes="cccscsccccccccscscccccc" />
  <path
     sodipodi:nodetypes="cccccccsccccccc"
     style="opacity:1;vector-effect:none;fill:#ffffff;fill-opacity:1;stroke:none;stroke-width:1;stroke-linecap:round;stroke-linejoin:bevel;stroke-miterlimit:4;stroke-dasharray:none;stroke-dashoffset:0;stroke-opacity:1"
     d="M 14.989228,7.0271846 C 13.432647,7.0379806 9.879238,7.0154326 8.329287,7.0659596 7.868058,7.1086276 7.313099,7.272379 7.173947,7.7759264 6.954953,8.4112728 7.065533,9.1097136 7.028151,9.757851 c -0.0078,2.297084 -0.02297,7.596428 0.02152,9.88578 0.0391,0.461929 0.202551,1.012666 0.698756,1.163666 0.632456,0.225082 1.284144,0.12274 1.935974,0.154298 1.424235,0.0068 4.850563,0.01102 6.27642,0.01131 1.704531,3.5e-4 1.408732,-0.005 3.107534,-0.01851 0.511911,-0.01201 1.183699,0.01993 1.584745,-0.405191 0.421097,-0.539783 0.287073,-1.268021 0.322745,-1.903787 0.01187,-2.444323 0.02769,-7.911095 -0.0219,-10.3567947 C 20.904669,7.886582 20.783953,7.4256702 20.378806,7.2441471 19.710637,6.9500497 18.952601,7.0761282 18.252885,7.0385744 16.498478,7.0267718 16.743667,7.02609 14.989228,7.0271846 Z"
     id="path853"
     inkscape:connector-curvature="0" />
  <path
     d="m 19,14 v 1 h 1 v -1 z m 0,2 v 3 h 1 v -3 z"
     id="path4"
     inkscape:connector-curvature="0"
     style="fill:#fa9381;fill-opacity:1"
     sodipodi:nodetypes="cccccccccc" />
  <path
     sodipodi:nodetypes="cccscsccccccccscscccccc"
     inkscape:connector-curvature="0"
     id="path4237-1"
     d="m 6.010772,1.9999998 c -1.2582,0.0145 -2.178891,-0.030604 -2.931641,0.3847656 -0.37637,0.20766 -0.6732309,0.5593869 -0.8378909,0.9980469 -0.16467,0.43867 -0.224609,0.9595875 -0.224609,1.6171875 v 1.4882812 8.512302 c 0,0.65761 0.0599,1.178577 0.224609,1.617188 0.16468,0.438611 0.4615309,0.788524 0.8378909,0.996093 0.75272,0.41513 1.673541,0.371649 2.931641,0.386719 h 0.002 8.006203 0.0039 c 1.25819,-0.0145 2.178891,0.0306 2.931641,-0.384766 0.37637,-0.20766 0.673221,-0.559386 0.837891,-0.998046 0.164539,-0.438671 0.224618,-0.959578 0.224618,-1.617188 V 6.466797 4.9999998 c 0,-0.6576 -0.0599,-1.1785775 -0.224609,-1.6171875 -0.16468,-0.4386 -0.461531,-0.7885338 -0.837891,-0.9960937 -0.75277,-0.41513 -1.673601,-0.3716388 -2.931691,-0.3867188 h -0.002 -8.006203 z"
     style="font-style:normal;font-variant:normal;font-weight:normal;font-stretch:normal;font-size:15px;line-height:125%;font-family:Ubuntu;-inkscape-font-specification:Ubuntu;text-align:center;letter-spacing:0px;word-spacing:0px;writing-mode:lr-tb;text-anchor:middle;display:inline;opacity:0.6;fill:#000000;fill-opacity:1;stroke:none;stroke-width:0.99980211" />
  <path
     inkscape:connector-curvature="0"
     id="path1993"
     d="M 11,3.0271846 C 9.443419,3.0379806 5.89001,3.0154326 4.340059,3.0659596 3.87883,3.1086276 3.323871,3.272379 3.184719,3.7759264 2.965725,4.4112728 3.076305,5.1097136 3.038923,5.757851 c -0.0078,2.297084 -0.02297,7.596428 0.02152,9.88578 0.0391,0.461929 0.202551,1.012666 0.698756,1.163666 0.632456,0.225082 1.284144,0.12274 1.935974,0.154298 1.424235,0.0068 4.850563,0.01102 6.27642,0.01131 1.704531,3.5e-4 1.408732,-0.005 3.107534,-0.01851 0.511911,-0.01201 1.183699,0.01993 1.584745,-0.405191 0.421097,-0.539783 0.287073,-1.268021 0.322745,-1.903787 0.01187,-2.444323 0.02769,-7.911095 -0.0219,-10.3567947 C 16.915441,3.886582 16.794725,3.4256702 16.389578,3.2441471 15.721409,2.9500497 14.963373,3.0761282 14.263657,3.0385744 12.50925,3.0267718 12.754439,3.02609 11,3.0271846 Z"
     style="opacity:1;vector-effect:none;fill:#ffffff;fill-opacity:1;stroke:none;stroke-width:1;stroke-linecap:round;stroke-linejoin:bevel;stroke-miterlimit:4;stroke-dasharray:none;stroke-dashoffset:0;stroke-opacity:1"
     sodipodi:nodetypes="cccccccsccccccc" />
  <path
     inkscape:connector-curvature="0"
     style="fill:#000000;fill-opacity:1"
     d="M 5,5 V 6 H 15 V 5 Z"
     id="path848"
     sodipodi:nodetypes="ccccc" />
  <path
     inkscape:connector-curvature="0"
     style="fill:#000000;fill-opacity:1"
     d="M 5,8 V 9 H 15 V 8 Z"
     id="path846"
     sodipodi:nodetypes="ccccc" />
  <path
     style="fill:#fa9381;fill-opacity:1;stroke-width:1.19614935"
     d="m 5,14 v 1 h 10 v -1 z"
     id="path2-3"
     inkscape:connector-curvature="0"
     sodipodi:nodetypes="ccccc" />
  <circle
     style="opacity:1;vector-effect:none;fill:#46a926;fill-opacity:1;stroke:none;stroke-width:3.49999976;stroke-linecap:butt;stroke-linejoin:round;stroke-miterlimit:4;stroke-dasharray:none;stroke-dashoffset:0;stroke-opacity:1"
     id="path2644"
     cy="5.4999995"
     cx="18.499998"
     r="3.5" />
  <path
     inkscape:connector-curvature="0"
     id="path1063"
     overflow="visible"
     font-weight="400"
     style="color:#000000;font-weight:400;line-height:normal;font-family:sans-serif;text-indent:0;text-align:start;text-decoration:none;text-decoration-line:none;text-decoration-style:solid;text-decoration-color:#000000;text-transform:none;white-space:normal;overflow:visible;isolation:auto;mix-blend-mode:normal;fill:#ffffff;fill-opacity:1;marker:none"
     d="M 18,3 V 5 H 15.999999 V 6 H 18 v 2.0000002 h 1 V 6 h 2 V 5 H 19 V 3 Z" />
  <path
     id="path850"
     d="m 5.010772,11 v 1 h 10 v -1 z"
     style="fill:#000000;fill-opacity:1"
     inkscape:connector-curvature="0"
     sodipodi:nodetypes="ccccc" />
</svg>

<svg xmlns="http://www.w3.org/2000/svg" viewBox="0 0 24 24"><path style="line-height:125%;-inkscape-font-specification:Ubuntu;text-align:center" d="M10 6c-1.258.014-2.179-.03-2.932.385a1.88 1.88 0 00-.838.998c-.164.438-.224.96-.224 1.617v10.001c0 .657.06 1.178.224 1.617.165.438.462.788.838.996.753.415 1.674.372 2.932.387h8.012c1.258-.015 2.179.03 2.932-.385a1.88 1.88 0 00.838-.998c.164-.439.224-.96.224-1.617V9c0-.658-.06-1.179-.224-1.617a1.875 1.875 0 00-.838-.996c-.753-.415-1.674-.372-2.932-.387H10.004z" font-weight="400" font-size="15" font-family="Ubuntu" letter-spacing="0" word-spacing="0" text-anchor="middle" opacity=".6"/><path d="M14.99 7.027c-1.557.011-5.11-.012-6.66.039-.462.043-1.017.206-1.156.71-.219.635-.108 1.334-.146 1.982-.008 2.297-.023 7.596.022 9.886.039.462.202 1.012.698 1.163.633.225 1.285.123 1.936.155 1.425.006 4.851.01 6.277.01 1.704.001 1.409-.004 3.107-.018.512-.012 1.184.02 1.585-.405.421-.54.287-1.268.323-1.904.012-2.444.028-7.91-.022-10.356-.05-.402-.17-.863-.575-1.045-.668-.294-1.426-.168-2.126-.205-1.755-.012-1.51-.013-3.264-.012z" fill="#fff"/><path d="M19 14v1h1v-1zm0 2v3h1v-3z" fill="#fa9381"/><path d="M6.01 2c-1.257.014-2.178-.03-2.93.385a1.88 1.88 0 00-.839.998c-.164.438-.224.96-.224 1.617v10.001c0 .657.06 1.178.224 1.617.165.438.462.788.838.996.753.415 1.674.372 2.932.387h8.012c1.258-.015 2.179.03 2.932-.385a1.88 1.88 0 00.837-.998c.165-.439.225-.96.225-1.617V5c0-.658-.06-1.179-.225-1.617a1.875 1.875 0 00-.837-.996c-.753-.415-1.674-.372-2.932-.387H6.015z" style="line-height:125%;-inkscape-font-specification:Ubuntu;text-align:center" font-weight="400" font-size="15" font-family="Ubuntu" letter-spacing="0" word-spacing="0" text-anchor="middle" opacity=".6"/><path d="M11 3.027c-1.557.011-5.11-.012-6.66.039-.461.043-1.016.206-1.155.71-.22.635-.109 1.334-.146 1.982-.008 2.297-.023 7.596.021 9.886.04.462.203 1.012.7 1.163.632.225 1.283.123 1.935.155 1.424.006 4.85.01 6.277.01 1.704.001 1.408-.004 3.107-.018.512-.012 1.184.02 1.585-.405.421-.54.287-1.268.323-1.904.011-2.444.027-7.91-.022-10.356-.05-.402-.17-.863-.575-1.045-.669-.294-1.427-.168-2.126-.205-1.755-.012-1.51-.013-3.264-.012z" fill="#fff"/><path d="M5 5v1h10V5zM5 8v1h10V8z"/><path d="M5 14v1h10v-1z" fill="#fa9381"/><circle cy="5.5" cx="18.5" r="3.5" fill="#46a926"/><path overflow="visible" font-weight="400" style="line-height:normal;text-indent:0;text-align:start;text-decoration-line:none;text-decoration-style:solid;text-decoration-color:#000;text-transform:none;white-space:normal;isolation:auto;mix-blend-mode:normal;marker:none" d="M18 3v2h-2v1h2v2h1V6h2V5h-2V3z" color="#000" font-family="sans-serif" fill="#fff"/><path d="M5.01 11v1h10v-1z"/></svg>
